assets/platform_icons/heart_media_icon.svg

<svg width="44" height="45" viewBox="0 0 44 45" fill="none" xmlns="http://www.w3.org/2000/svg">
<path d="M37.1673 35.9026C36.5642 36.0815 36.231 36.7566 35.9438 37.2759C35.6853 37.749 35.1855 38.303 35.1855 38.8569C35.1855 39.0357 35.3694 39.18 35.5417 39.1281C36.0759 38.978 36.4723 38.3491 36.8571 37.9741C37.2822 37.5586 37.8509 37.0509 37.8624 36.4277C37.8739 36.0815 37.5062 35.7988 37.1673 35.9026Z" fill="black"/>
<path d="M43.6078 23.7798C46.2157 13.1976 35.3302 2.49433 25.4269 0.613318C19.9813 -0.419507 14.3174 0.561393 9.67599 3.60217C5.68942 6.2102 1.61094 10.8435 1.10543 15.748C1.09395 15.8576 1.12841 15.9441 1.17436 16.0191C-1.96779 24.1144 1.45584 34.2927 8.3433 39.4337C15.1733 44.5286 26.4035 46.3115 33.6701 40.9916C34.2847 40.5415 33.7735 39.6472 33.0726 39.9761C32.8084 40.0973 32.5442 40.2184 32.2857 40.3396C32.1536 40.1088 31.8778 39.9588 31.5332 40.1261C26.6964 42.4283 19.9813 41.2628 15.202 39.5549C14.6621 39.3645 14.2944 40.2242 14.8114 40.4781C17.3562 41.7186 20.1249 42.4456 22.9626 42.5956C24.146 42.6591 25.335 42.6187 26.5184 42.4918C24.7147 42.9476 22.8535 43.1553 20.8487 42.9765C16.776 42.6072 13.18 41.0839 9.81385 38.8221C5.86749 36.1737 3.1734 32.9482 1.89815 28.3323C0.789498 24.3337 0.732058 20.1216 1.9556 16.1634C2.0073 16.123 2.05901 16.0769 2.08773 16.0134C2.30027 15.6095 2.50706 15.2114 2.71386 14.819C1.5018 17.9521 1.14566 21.4256 1.69137 24.7376C2.7196 31.0211 6.24662 35.1697 11.4338 38.5798C12.0541 38.9894 12.6803 37.9393 12.0197 37.5873C7.41271 35.1351 3.75933 29.5555 2.98384 24.4548C2.12794 18.8234 4.16717 13.5381 7.50463 9.0548C7.79185 8.67398 7.18869 8.25277 6.86127 8.55858C6.31556 9.0721 5.81004 9.62603 5.339 10.2088C6.103 9.0548 6.95892 7.97004 7.98715 6.9603C7.75163 7.35843 8.13076 7.95849 8.6018 7.65269C9.81385 6.87374 10.9857 6.04286 12.2437 5.32739C13.1398 4.81963 14.0934 4.41574 15.0125 3.94837C15.1618 3.99453 15.3341 4.00606 15.5352 3.95413C22.2101 2.25199 28.8563 2.98477 34.0549 7.88348C34.256 8.07389 34.503 7.98734 34.6294 7.81424C34.5834 8.05658 34.7155 8.34509 35.0372 8.34509C35.6002 8.34509 35.6002 7.47382 35.0372 7.47382C34.8764 7.47382 34.7672 7.54307 34.6983 7.64693C34.7098 7.54884 34.6811 7.44497 34.5949 7.34688C32.8601 5.50626 30.6715 3.97145 28.2646 2.89823C35.2957 5.48318 41.1434 11.8071 41.9879 19.1061C41.4651 16.775 40.4943 14.519 39.0755 12.4822C38.7136 11.9686 37.9151 12.4129 38.2196 12.9784C40.1095 16.4519 40.9998 20.2485 41.1262 24.1837C41.2583 28.2919 39.6671 31.8 37.49 35.187C37.266 35.5332 37.783 35.9544 38.0645 35.6659C38.1966 35.7352 38.3574 35.7352 38.4953 35.6082C41.6374 32.6655 43.9352 28.2573 43.625 23.8432C43.625 23.8202 43.6135 23.8028 43.6078 23.7798Z" fill="black"/>
<path d="M13.0873 39.0927C12.9495 39.4158 13.1333 39.7389 13.455 39.8486C13.6905 39.9294 13.903 40.0101 14.15 40.0448C14.5751 40.0967 14.7359 39.5139 14.4774 39.2543C14.3109 39.0812 14.0868 38.96 13.8858 38.8273C13.6043 38.6369 13.208 38.8042 13.0873 39.0927Z" fill="black"/>
<path d="M26.4 14.2148C26 14.2148 25.6 14.3142 25.1 14.4136C24.7 14.513 24.3 14.8111 23.9 15.0099C23.5 15.308 23.2 15.5068 22.9 15.7055C22.6 15.9043 22.4 16.2024 22.1 16.4012C21.9 16.2024 21.6 15.9043 21.3 15.7055C21 15.5068 20.7 15.2086 20.3 15.0099C19.9 14.7117 19.5 14.513 19.1 14.4136C18.7 14.3142 18.2 14.2148 17.8 14.2148C16.3 14.2148 15.1 14.6124 14.3 15.5068C13.4 16.4012 13 17.5937 13 19.0844C13 19.5813 13.1 19.9788 13.2 20.4757C13.4 20.9726 13.5 21.3701 13.7 21.7676C13.9 22.0658 14.1 22.4633 14.4 22.7614C14.7 23.0596 14.8 23.3577 15 23.4571C15.1 23.5565 15.2 23.6558 15.3 23.7552L21.6 30.0161C21.7 30.1155 21.9 30.2148 22 30.2148C22.1 30.2148 22.3 30.1155 22.4 30.0161L28.7 23.7552C30.2 22.1651 31 20.5751 31 19.0844C31 17.5937 30.6 16.4012 29.7 15.5068C29.1 14.6124 27.9 14.2148 26.4 14.2148Z" fill="#E30029"/>
</svg>

<svg xmlns="http://www.w3.org/2000/svg" fill="none" viewBox="0 0 44 45"><path fill="#000" d="M37.2 35.9c-.6.2-1 .9-1.3 1.4-.2.4-.7 1-.7 1.6 0 .1.2.3.3.2.6-.1 1-.8 1.4-1.1.4-.4 1-1 1-1.6 0-.3-.4-.6-.7-.5Z"/><path fill="#000" d="M43.6 23.8C46.2 13.2 35.3 2.5 25.4.6c-5.4-1-11 0-15.7 3-4 2.6-8 7.2-8.6 12.1v.3a21 21 0 0 0 7.2 23.4c6.9 5.1 18.1 7 25.4 1.6a.6.6 0 0 0-.6-1l-.8.3c-.1-.2-.4-.3-.8-.2-4.8 2.3-11.5 1.2-16.3-.5-.5-.2-1 .6-.4.9a21.2 21.2 0 0 0 11.7 2c-1.8.4-3.6.7-5.7.5-4-.4-7.6-2-11-4.2A18 18 0 0 1 2 28.3 21.6 21.6 0 0 1 2.1 16l.6-1.2a19 19 0 0 0-1 10c1 6.2 4.5 10.4 9.7 13.8.7.4 1.3-.7.6-1a19 19 0 0 1-9-13.1C2 18.8 4.2 13.5 7.5 9c.3-.4-.3-.8-.6-.5l-1.6 1.6L8 7c-.2.4.1 1 .6.7l3.6-2.4L15 4h.5C22.2 2.4 29 3 34.1 8c.2.2.4 0 .5 0 0 .2.1.4.4.4.6 0 .6-.8 0-.8l-.3.1-.1-.3c-1.7-1.8-4-3.3-6.3-4.4 7 2.6 12.8 9 13.7 16.2-.5-2.3-1.5-4.6-3-6.6-.3-.5-1 0-.8.5 2 3.5 2.8 7.2 3 11.2a19 19 0 0 1-3.7 11c-.2.3.3.8.6.5h.4c3.1-3 5.4-7.4 5.1-11.9Z"/><path fill="#000" d="M13 39c0 .4.1.7.5.8l.7.2c.4.1.5-.5.3-.7l-.6-.5c-.3-.2-.7 0-.8.3Z"/><path fill="#E30029" d="m26.4 14.2-1.3.2-1.2.6-1 .7-.8.7-.8-.7-1-.7-1.2-.6-1.3-.2c-1.5 0-2.7.4-3.5 1.3-.9.9-1.3 2-1.3 3.6l.2 1.4.5 1.3.7 1 .6.7.3.3 6.3 6.2.4.2c.1 0 .3 0 .4-.2l6.3-6.2c1.5-1.6 2.3-3.2 2.3-4.7s-.4-2.7-1.3-3.6c-.6-.9-1.8-1.3-3.3-1.3Z"/></svg>
